X:236
T: Der Mutter Rat (14b), S. 64
N: T0124
O: Luxemburg
S: Singendes Volk, Esch-Alzette 1937 posth.]
N: Weidingen/Wiltz, hhh Johann Scheer, 15.7.1934
R: "erzhlende Lieder"]
M: 6/8
L: 1/16
K: Bb
F2 | B4D2G4F2 | F2E2z6
c2 | c4DDG4F2 | D4z6
F2 | d4c2B4G2 | G2F2z6
B2 | A2c2d2e4A2 | B4z6
F2 | d4c2B4G2 | G2F2z6
B2 | A2c2d2e4A2 | B4z6

@@@ Tune index: 8290
